src/images/icons/note.svg

<?xml version="1.0" encoding="UTF-8"?>
<svg width="128px" height="128px" viewBox="0 0 128 128" version="1.1" xmlns="http://www.w3.org/2000/svg" xmlns:xlink="http://www.w3.org/1999/xlink">
    <title>note</title>
    <g id="note" stroke="none" stroke-width="1" fill="none" fill-rule="evenodd">
        <g id="information-circle" fill="#2563EB" fill-rule="nonzero">
            <path d="M64,0 C28.7104,0 0,28.7104 0,64 C0,99.2896 28.7104,128 64,128 C99.2896,128 128,99.2896 128,64 C128,28.7104 99.2896,0 64,0 Z M64,26.24 C68.5950091,26.24 72.32,29.9649909 72.32,34.56 C72.32,39.1550091 68.5950091,42.88 64,42.88 C59.4049909,42.88 55.68,39.1550091 55.68,34.56 C55.68,32.3533988 56.5565689,30.2371742 58.1168716,28.6768716 C59.6771742,27.1165689 61.7933988,26.24 64,26.24 L64,26.24 Z M79.36,98.56 L51.2,98.56 C48.3723021,98.56 46.08,96.2676979 46.08,93.44 C46.08,90.6123021 48.3723021,88.32 51.2,88.32 L60.16,88.32 L60.16,60.16 L55.04,60.16 C52.2123021,60.16 49.92,57.8676979 49.92,55.04 C49.92,52.2123021 52.2123021,49.92 55.04,49.92 L65.28,49.92 C68.1076979,49.92 70.4,52.2123021 70.4,55.04 L70.4,88.32 L79.36,88.32 C82.1876979,88.32 84.48,90.6123021 84.48,93.44 C84.48,96.2676979 82.1876979,98.56 79.36,98.56 Z" id="Shape"></path>
        </g>
    </g>
</svg>

<svg xmlns="http://www.w3.org/2000/svg" viewBox="0 0 128 128"><path fill="#1E40AF" fill-rule="nonzero" d="M64 0C28.71 0 0 28.71 0 64s28.71 64 64 64 64-28.71 64-64S99.29 0 64 0m0 26.24a8.32 8.32 0 1 1 0 16.64 8.32 8.32 0 0 1 0-16.64m15.36 72.32H51.2a5.12 5.12 0 0 1 0-10.24h8.96V60.16h-5.12a5.12 5.12 0 0 1 0-10.24h10.24a5.12 5.12 0 0 1 5.12 5.12v33.28h8.96a5.12 5.12 0 0 1 0 10.24"/></svg>
